!!!COM: Scriabin, Alexander
!!!OTL@@FR: Prélude en si bémol mineur
!!!OTL@@EN: Prelude in Bb Minor
!!!OPR@@FR: 24 Préludes
!!!OPR@@EN: 24 Preludes
!!!OPS: 11
!!!ONM: 16
!!!ODT: 1895
!!!AGN: Prelude
**kern	**kern	**dynam
*staff2	*staff1	*staff1/2
*Ipiano	*Ipiano	*
*clefF4	*clefF4	*
*k[b-e-a-d-g-]	*k[b-e-a-d-g-]	*
*b-:	*b-:	*
*M5/8	*M5/8	*
*^	*^	*
8rc	24BBB-LL	8rc	24BB-LL	.
.	24CC	.	24C	.
.	24EE-JJ	.	24E-JJ	.
=1	=1	=1	=1	=1
4.BB-	8BB-L	4.B-	8B-L	.
.	8AA-	.	8A-	.
.	8EE-	.	8E-	.
8.BB-L	8GG-	8.B-L	8G-	.
.	8DD-J	.	8D-J	.
16BB-Jk	.	16B-Jk	.	.
*v	*v	*	*	*
*	*v	*v	*
=2	=2	=2
*M4/8	*M4/8	*
*^	*^	*
4.BB-	8FFL	4.B-	8FL	.
.	8CC	.	8C	.
.	8DD-J	.	8D-J	.
8rc	24BBB-LL	8rc	24BB-LL	.
.	24DD-	.	24D-	.
.	24GG-JJ	.	24G-JJ	.
*v	*v	*	*	*
*	*v	*v	*
=3	=3	=3
*M5/8	*M5/8	*
*^	*^	*
4.D-	8D-L	4.d-	8d-L	.
.	8C	.	8c	.
.	8GG-	.	8G-	.
8.D-L	8BB-	8.d-L	8B-	.
.	8FFJ	.	8FJ	.
16D-Jk	.	16d-Jk	.	.
*v	*v	*	*	*
*	*v	*v	*
=4	=4	=4
*M4/8	*M4/8	*
*^	*^	*
4.D-	8GG-L	4.d-	8G-L	.
.	8EE-	.	8E-	.
.	8DD-J	.	8D-J	.
8rc	24DD-LL	8rc	24D-LL	.
.	24GG-	.	24G-	.
.	24BB-JJ	.	24B-JJ	.
*v	*v	*	*	*
*	*v	*v	*
=5	=5	=5
*M5/8	*M5/8	*
*^	*^	*
[4.F	8FL	[4.f	8fL	.
.	8E-	.	8e-	.
.	8BB-	.	8B-	.
8F]	8D-J	8f]	8d-J	.
8rc	24CCLL	8rc	24CLL	.
.	24GG-	.	24G-	.
.	24BB-JJ	.	24B-JJ	.
=6	=6	=6	=6	=6
[4.En	8EL	[4.en	8eL	.
.	8D-	.	8d-	.
.	8BB-	.	8B-	.
8E]	8CJ	8e]	8cJ	.
*	*	*clefG2	*	*
8rc	24FFLL	8raa	24FLL	.
.	24AAn	.	24An	.
.	24D-JJ	.	24d-JJ	.
=7	=7	=7	=7	=7
4.F	8FL	4.f	8fL	.
.	8E-	.	8e-	.
.	8C	.	8c	.
4rc	8D-	4raa	8d-	.
.	8BB-J	.	8B-J	.
*v	*v	*	*	*
*	*v	*v	*
=8	=8	=8
*M4/8	*M4/8	*
*^	*^	*
2ryy	8CL	2ryy	8cL	.
.	8GG-	.	8G-	.
.	8FFJ	.	8FJ	.
.	24FFLL	.	24FLL	.
.	24GGn	.	24Gn	.
.	24BB-JJ	.	24B-JJ	.
*v	*v	*	*	*
*	*v	*v	*
=9	=9	=9
*M5/8	*M5/8	*
*^	*^	*
4.F	8FL	4.f	8fL	.
.	8E-	.	8e-	.
.	8BB-	.	8B-	.
8.FL	8D-	8.fL	8d-	.
.	8AA-J	.	8A-J	.
16FJk	.	16fJk	.	.
*v	*v	*	*	*
*	*v	*v	*
=10	=10	=10
*M4/8	*M4/8	*
*^	*^	*
4.F	8CL	4.f	8cL	.
.	8GGn	.	8Gn	.
.	8AA-J	.	8A-J	.
8rc	24DDnLL	8raa	24DnLL	.
.	24BB-	.	24B-	.
.	24FJJ	.	24fJJ	.
*v	*v	*	*	*
*	*v	*v	*
=11	=11	=11
*M5/8	*M5/8	*
*^	*^	*
4.A-	8A-L	4.a-	8a-L	.
.	8G-	.	8g-	.
.	8F	.	8f	.
8.A-L	8A-	8.a-L	8a-	.
.	8BB-J	.	8B-J	.
16A-Jk	.	16a-Jk	.	.
*v	*v	*	*	*
*	*v	*v	*
=12	=12	=12
*M4/8	*M4/8	*
*^	*^	*
4.A-	8C-XL	4.a-	8c-XL	.
.	8AA-	.	8A-	.
.	8BB-J	.	8B-J	.
8rc	24EE-LL	8raa	24E-LL	.
.	24BB-	.	24B-	.
.	24E-JJ	.	24e-JJ	.
*v	*v	*	*	*
*	*v	*v	*
=13	=13	=13
*M5/8	*M5/8	*
*^	*^	*
[4.G-	8G-L	[4.g-	8g-L	.
.	8F	.	8f	.
.	8D-	.	8d-	.
8G-]	8E-J	8g-]	8e-J	.
8rc	24AA-LL	8raa	24A-LL	.
.	24BB-	.	24B-	.
.	24CJJ	.	24cJJ	.
=14	=14	=14	=14	=14
[4.F	8FL	[4.f	8fL	.
.	8D-	.	8d-	.
.	8BB-	.	8B-	.
8F]	8CJ	8f]	8cJ	.
8rc	24DD-LL	8raa	24D-LL	.
.	24AA-	.	24A-	.
.	24D-JJ	.	24d-JJ	.
=15	=15	=15	=15	=15
4.A-	8A-L	4.a-	8a-L	.
.	8G-	.	8g-	.
.	8E-	.	8e-	.
8rc	8F	8raa	8f	.
8rc	8A-J	8raa	8a-J	.
*v	*v	*	*	*
*	*v	*v	*
=16	=16	=16
*M4/8	*M4/8	*
*^	*^	*
2ryy	8d-L	2ryy	8dd-L	.
.	8F	.	8f	.
.	8AA-J	.	8A-J	.
.	24BB-LL	.	24B-LL	.
.	24D-	.	24d-	.
.	24G-JJ	.	24g-JJ	.
*v	*v	*	*	*
*	*v	*v	*
=17	=17	=17
*M5/8	*M5/8	*
*^	*^	*
4.d-	8d-L	4.dd-	8dd-L	.
.	8c	.	8cc	.
.	8G-	.	8g-	.
8.d-L	8B-	8.dd-L	8b-	.
.	8D-J	.	8d-J	.
16d-Jk	.	16dd-Jk	.	.
=18	=18	=18	=18	=18
4.d-	8d-L	4.dd-	8dd-L	.
.	8c	.	8cc	.
.	8G-	.	8g-	.
4d-	8B-J	4dd-	8b-J	.
.	24BB-LL	.	24B-LL	.
.	24E-	.	24e-	.
.	24G-JJ	.	24g-JJ	.
=19	=19	=19	=19	=19
[4.c-X	8c-L	[4.cc-X	8cc-L	.
.	8B-	.	8b-	.
.	8F	.	8f	.
4c-_	8A-	4cc-_	8a-	.
.	8E-J	.	8e-J	.
*v	*v	*	*	*
*	*v	*v	*
=20	=20	=20
*M4/8	*M4/8	*
*^	*^	*
4.c-]	8G-L	4.cc-]	8g-L	.
.	8F	.	8f	.
.	8E-J	.	8e-J	.
8rc	24AA-LL	8raa	24A-LL	.
.	24C-X	.	24c-X	.
.	24F-XJJ	.	24f-XJJ	.
*v	*v	*	*	*
*	*v	*v	*
=21	=21	=21
*M5/8	*M5/8	*
*^	*^	*
4.c-X	8c-L	4.cc-X	8cc-L	.
.	8B-	.	8b-	.
.	8F-X	.	8f-X	.
8.c-L	8A-	8.cc-L	8a-	.
.	8C-XJ	.	8c-XJ	.
16c-Jk	.	16cc-Jk	.	.
=22	=22	=22	=22	=22
4.c-X	8c-L	4.cc-X	8cc-L	.
.	8B-	.	8b-	.
.	8F-X	.	8f-X	.
4c-	8A-J	4cc-	8a-J	.
.	24AA-LL	.	24A-LL	.
.	24Dn	.	24dn	.
.	24FnJJ	.	24fnJJ	.
=23	=23	=23	=23	=23
[4.B-	8B-L	[4.b-	8b-L	.
.	8A-	.	8a-	.
.	8F	.	8f	.
4B-]	8G-	4b-]	8g-	.
.	8E-J	.	8e-J	.
*v	*v	*	*	*
*	*v	*v	*
=24	=24	=24
*M4/8	*M4/8	*
*^	*^	*
4.F	8FL	4.f	8fL	.
.	8C-X	.	8c-X	.
.	8BB-J	.	8B-J	.
8rc	24GG-LL	8raa	24G-LL	.
.	24BB-	.	24B-	.
.	24E-JJ	.	24e-JJ	.
*v	*v	*	*	*
*	*v	*v	*
=25	=25	=25
*M5/8	*M5/8	*
*^	*^	*
4.B-	8B-L	4.b-	8b-L	.
.	8F	.	8f	.
.	8Dn	.	8dn	.
8.B-L	8E-	8.b-L	8e-	.
.	8BB-J	.	8B-J	.
16B-Jk	.	16b-Jk	.	.
=26	=26	=26	=26	=26
[4.B-	8B-L	[4.b-	8b-L	.
.	8F	.	8f	.
.	8Dn	.	8dn	.
8B-]	8E-J	8b-]	8e-J	.
8rc	24GG-LL	8raa	24G-LL	.
.	24C	.	24c	.
.	24EnJJ	.	24enJJ	.
=27	=27	=27	=27	=27
4.c	8cL	4.cc	8ccL	.
.	8G-	.	8g-	.
.	8E-X	.	8e-X	.
8.cL	8En	8.ccL	8en	.
.	8CJ	.	8cJ	.
16cJk	.	16ccJk	.	.
=28	=28	=28	=28	=28
[4.c	8cL	[4.cc	8ccL	.
.	8G-	.	8g-	.
.	8E-	.	8e-	.
8c]	8EnJ	8cc]	8enJ	.
8rc	24FFLL	8raa	24FLL	.
.	24AAn	.	24An	.
.	24D-JJ	.	24d-JJ	.
=29	=29	=29	=29	=29
3...ryy	8FFL 8F	3...ryy	8fL	.
.	8GGGn 8GGn	.	8Gn	.
.	8AAAn 8AAn	.	8An	.
.	8GGG-X 8GG-X	.	8G-X	.
.	8AAA-XJ 8AA-X	.	8A-XJ	.
=30	=30	=30	=30	=30
3...ryy	8GGGnL 8GGn	3...ryy	8GnL	.
.	8AAAn 8AAn	.	8An	.
.	8BBBn 8BBn	.	8Bn	.
.	8AAA-X 8AA-X	.	8A-X	.
.	8BBB-XJ 8BB-X	.	8B-XJ	.
=31	=31	=31	=31	=31
3...ryy	8AAAnL 8AAn	3...ryy	8AnL	.
.	8CC-X 8C-X	.	8c-X	.
.	8DD- 8D-	.	8d-	.
.	8AAA 8AA	.	8A	.
.	8CC-J 8C-	.	8c-J	.
=32	=32	=32	=32	=32
3...ryy	8DD-L 8D-	3...ryy	8d-L	.
.	8AAAn 8AAn	.	8An	.
.	8CC-X 8C-X	.	8c-X	.
.	8DD-J 8D-	.	8d-J	.
.	24BBB-LL 24BB-	.	24B-LL	.
.	24Cn	.	24cn	.
.	24E-JJ	.	24e-JJ	.
=33	=33	=33	=33	=33
3...ryy	8BB-L 8B-	4.B- 4.b-	8b-L	.
.	8AA- 8A-	.	8a-	.
.	8EE- 8E-	.	8e-	.
.	8GG- 8G-	8.B-L 8.b-	8g-	.
.	8DD-J 8D-	.	8d-J	.
.	.	16B-Jk 16b-	.	.
*v	*v	*	*	*
*	*v	*v	*
=34	=34	=34
*M4/8	*M4/8	*
*^	*^	*
2ryy	8FFL 8F	4.B- 4.b-	8fL	.
.	8CC 8C	.	8c	.
.	8DD-J 8D-	.	8d-J	.
.	24BBB-LL 24BB-	8raa	24B-LL	.
.	24D-	.	24d-	.
.	24G-JJ	.	24g-JJ	.
*v	*v	*	*	*
*	*v	*v	*
=35	=35	=35
*M5/8	*M5/8	*
*^	*^	*
3...ryy	8D-L 8d-	4.d- 4.dd-	8dd-L	.
.	8C 8c	.	8cc	.
.	8GG- 8G-	.	8g-	.
.	8BB- 8B-	8.d-L 8.dd-	8b-	.
.	8FFJ 8F	.	8fJ	.
.	.	16d-Jk 16dd-	.	.
*v	*v	*	*	*
*	*v	*v	*
=36	=36	=36
*M4/8	*M4/8	*
*^	*^	*
2ryy	8GG-L 8G-	4.d- 4.dd-	8g-L	.
.	8EE- 8E-	.	8e-	.
.	8DD-J 8D-	.	8d-J	.
.	24DD-LL 24D-	8raa	24d-LL	.
.	24G-	.	24g-	.
.	24B-JJ	.	24b-JJ	.
*v	*v	*	*	*
*	*v	*v	*
=37	=37	=37
*M5/8	*M5/8	*
*^	*^	*
3...ryy	8FL 8f	[4.f [4.ff	8ffL	.
.	8E- 8e-	.	8ee-	.
.	8BB- 8B-	.	8b-	.
.	8D-J 8d-	8f] 8ff]	8dd-J	.
.	24DDnLL 24Dn	8raa	24dnLL	.
.	24A-	.	24a-	.
.	24c-XJJ	.	24cc-XJJ	.
=38	=38	=38	=38	=38
3...ryy	8FL 8f	4.f [4.ff	8ffL	.
.	8D-X 8d-X	.	8dd-X	.
.	8BB- 8B-	.	8b-	.
.	8C-XJ 8c-X	8f 8ff]	8cc-XJ	.
.	24EE-LL 24E-	8raa	24e-LL	.
.	24G-	.	24g-	.
.	24c-JJ	.	24cc-JJ	.
=39	=39	=39	=39	=39
3...ryy	8G-L 8g-	[4.g- [4.gg-	8gg-L	.
.	8F 8f	.	8ff	.
.	8C-X 8c-X	.	8cc-X	.
.	8E- 8e-	8g-] 8gg-]	8ee-	.
.	8BB-J 8B-	8raa	8b-J	.
*v	*v	*	*	*
*	*v	*v	*
=40	=40	=40
*M4/8	*M4/8	*
*^	*^	*
2ryy	8C-XL 8c-X	2ryy	8cc-XL	.
.	8AA- 8A-	.	8a-	.
.	8GG-J 8G-	.	8g-J	.
.	24EE-LL	.	24E-LL	.
.	24GG-	.	24G-	.
.	24C-JJ	.	24c-XJJ	.
*v	*v	*	*	*
*	*v	*v	*
=41	=41	=41
*M5/8	*M5/8	*
*^	*^	*
4.G-	8G-L	4.g-	8g-L	.
.	8F	.	8f	.
.	8C-X	.	8c-X	.
8.G-L	8E-	8.g-L	8e-	.
.	8BB-J	.	8B-J	.
16G-Jk	.	16g-Jk	.	.
*v	*v	*	*	*
*	*v	*v	*
=42	=42	=42
*M4/8	*M4/8	*
*^	*^	*
4.G-	8D-L	4.g-	8d-L	.
.	8GG-	.	8G-	.
.	8FF-XJ	.	8F-XJ	.
8rc	24EE-LL	8raa	24E-LL	.
.	24GG-	.	24G-	.
.	24C-XJJ	.	24c-XJJ	.
*v	*v	*	*	*
*	*v	*v	*
=43	=43	=43
*M5/8	*M5/8	*
*^	*^	*
4.G-	8G-L	4.g-	8g-L	.
.	8F	.	8f	.
.	8C-X	.	8c-X	.
8.G-L	8E-	8.g-L	8e-	.
.	8BB-J	.	8B-J	.
16G-Jk	.	16g-Jk	.	.
*v	*v	*	*	*
*	*v	*v	*
=44	=44	=44
*M4/8	*M4/8	*
*^	*^	*
4.G-	8D-L	4.g-	8d-L	.
.	8GG-	.	8G-	.
.	8EEnJ	.	8EnJ	.
8rc	24FFLL	8raa	24FLL	.
.	24BB-	.	24B-	.
.	24CJJ	.	24cJJ	.
*v	*v	*	*	*
*	*v	*v	*
=45	=45	=45
*M5/8	*M5/8	*
*^	*^	*
[4.F	8FL	[4.f	8fL	.
.	8C	.	8c	.
.	8AAn	.	8An	.
4F_	8BB-	4f_	8B-	.
.	8CJ	.	8cJ	.
*v	*v	*	*	*
*	*v	*v	*
=46	=46	=46
*M4/8	*M4/8	*
*^	*^	*
4.F]	8E-L	4.f]	8e-L	.
.	8C	.	8c	.
.	8BB-J	.	8B-J	.
8rc	24FFLL	8raa	24FLL	.
.	24AAn	.	24An	.
.	24D-JJ	.	24d-JJ	.
*v	*v	*	*	*
*	*v	*v	*
=47	=47	=47
*M5/8	*M5/8	*
*^	*^	*
[4.F	8FL	[4.f	8fL	.
.	8E-	.	8e-	.
.	8AAn	.	8An	.
4F]	8E-	4f]	8e-	.
.	8D-J	.	8d-J	.
*	*	*clefF4	*	*
=48	=48	=48	=48	=48
*v	*v	*	*	*
*	*v	*v	*
*M4/8	*M4/8	*
*^	*^	*
4.AAn	8AAL	4.An	8AL	.
.	8GG-	.	8G-	.
.	8FFJ	.	8FJ	.
8rc	24BBB-LL	8rc	24BB-LL	.
.	24CC	.	24C	.
.	24EE-JJ	.	24E-JJ	.
*v	*v	*	*	*
*	*v	*v	*
=49	=49	=49
*M5/8	*M5/8	*
*^	*^	*
4.BB-	8BB-L	4.B-	8B-L	.
.	8AA-	.	8A-	.
.	8EE-	.	8E-	.
8.BB-L	8GG-	8.B-L	8G-	.
.	8DD-J	.	8D-J	.
16BB-Jk	.	16B-Jk	.	.
=50	=50	=50	=50	=50
4.BB-	8FFL	4.B-	8FL	.
.	8CC	.	8C	.
.	8DD-	.	8D-	.
8.BB-L	8GG-	8.B-L	8G-	.
.	8DD-J	.	8D-J	.
16BB-Jk	.	16B-Jk	.	.
=51	=51	=51	=51	=51
4.BB-	8FFL	4.B-	8FL	.
.	8CC	.	8C	.
.	8DD-	.	8D-	.
8.D-L	8BB-	8.d-L	8B-	.
.	8FFJ	.	8FJ	.
16D-Jk	.	16d-Jk	.	.
=52	=52	=52	=52	=52
4.D-	8GG-L	4.d-	8G-L	.
.	8EE-	.	8E-	.
.	8DD-J	.	8D-J	.
4rc	8.BBB-L 8.FF 8.BB-	4rc	8.FL 8.B- 8.f	.
.	16BBB-Jk 16FF 16BB-	.	16FJk 16B- 16f	.
*v	*v	*	*	*
*	*v	*v	*
=53	=53	=53
*M4/8	*M4/8	*
*^	*^	*
2ryy	2BBB- 2FF 2BB-	2ryy	2F 2B- 2f	.
*v	*v	*	*	*
*	*v	*v	*
==	==	==
*-	*-	*-
!!!system-decoration: {(*)}
!!!ENC: Bryan Jacob Bell
!!!END: November 2021 to April 2022
!!!PED: Günter Philipp
!!!PTL: Ausgewählte Klavierwerke (Edition Peters)
